assets/imgs/icon_1.svg

<svg width="40" height="40" viewBox="0 0 40 40" fill="none" xmlns="http://www.w3.org/2000/svg">
<g clip-path="url(#clip0_235_433)">
<path d="M9.75413 7.72561L11.4927 12.1337C11.696 12.6492 12.104 13.0572 12.6194 13.2605L17.0275 14.999L12.6194 16.7375C12.104 16.9408 11.696 17.3488 11.4927 17.8643L9.75413 22.2724L8.0156 17.8643C7.81231 17.3488 7.4043 16.9408 6.88885 16.7375L2.48073 14.999L6.88885 13.2605C7.4043 13.0572 7.81231 12.6492 8.0156 12.1337L7.08533 11.7668L8.0156 12.1337L9.75413 7.72561Z" fill="white" stroke="#4B4B4B" stroke-width="2"/>
<path d="M25.1115 11.0078L27.9813 18.2843C28.1846 18.7997 28.5926 19.2078 29.1081 19.411L36.3845 22.2808L29.1081 25.1506C28.5926 25.3539 28.1846 25.7619 27.9813 26.2774L25.1115 33.5538L22.2417 26.2774C22.0384 25.7619 21.6304 25.3539 21.115 25.1506L13.8385 22.2808L21.115 19.411C21.6304 19.2078 22.0384 18.7997 22.2417 18.2843L25.1115 11.0078Z" fill="white" stroke="#4B4B4B" stroke-width="2"/>
</g>
<defs>
<clipPath id="clip0_235_433">
<rect width="40" height="40" fill="white"/>
</clipPath>
</defs>
</svg>

<svg width="40" height="40" fill="none" xmlns="http://www.w3.org/2000/svg"><g clip-path="url(#a)" fill="#fff" stroke="#4B4B4B" stroke-width="2"><path d="m9.754 7.726 1.739 4.408a2 2 0 0 0 1.126 1.127l4.409 1.738-4.409 1.739a2 2 0 0 0-1.126 1.126l-1.739 4.408-1.738-4.408a2 2 0 0 0-1.127-1.127L2.48 15l4.408-1.739a2 2 0 0 0 1.127-1.126l-.93-.367.93.367 1.738-4.408zM25.111 11.008l2.87 7.276a2 2 0 0 0 1.127 1.127l7.277 2.87-7.277 2.87a2 2 0 0 0-1.127 1.126l-2.87 7.277-2.87-7.277a2 2 0 0 0-1.126-1.126l-7.276-2.87 7.276-2.87a2 2 0 0 0 1.127-1.127l2.87-7.276z"/></g><defs><clipPath id="a"><path fill="#fff" d="M0 0h40v40H0z"/></clipPath></defs></svg>
